assets/images/students-icon.svg

<svg width="100" height="100" viewBox="0 0 100 100" fill="none" xmlns="http://www.w3.org/2000/svg">
<g clip-path="url(#clip0)">
<path d="M50.0002 97.9809C76.4638 97.9809 97.9168 76.5138 97.9168 50.0328C97.9168 23.5518 76.4638 2.08472 50.0002 2.08472C23.5365 2.08472 2.0835 23.5518 2.0835 50.0328C2.0835 76.5138 23.5365 97.9809 50.0002 97.9809Z" fill="url(#paint0_linear)"/>
<path d="M50 4.1694C75.2778 4.1694 95.8333 24.7384 95.8333 50.0328C95.8333 75.3272 75.2778 95.8962 50 95.8962C24.7222 95.8962 4.16667 75.3272 4.16667 50.0328C4.16667 24.7384 24.7222 4.1694 50 4.1694ZM50 0C22.3611 0 0 22.3758 0 50.0328C0 77.6898 22.3611 100.066 50 100.066C77.6389 100.066 100 77.6898 100 50.0328C100 22.3758 77.6389 0 50 0Z" fill="#0078D4"/>
<path fill-rule="evenodd" clip-rule="evenodd" d="M73.1805 62.5326L70.5575 32.3489L25.3116 36.2859C24.4592 36.3515 23.8034 37.1389 23.869 37.9919L27.0821 74.5405C27.1477 75.3935 27.9346 76.0497 28.7871 75.984L74.033 72.047C76.1969 71.8502 77.8362 69.9473 77.6395 67.7163L77.1805 62.1389L73.1805 62.5326Z" fill="#28A7E9"/>
<path fill-rule="evenodd" clip-rule="evenodd" d="M73.3772 64.1075L72.5903 64.1731C71.7378 64.2387 70.9509 63.5826 70.8854 62.7295L67.6722 26.181C67.6067 25.328 68.2624 24.5406 69.1149 24.475L69.9018 24.4093C72.0657 24.2125 74.0329 25.8529 74.2296 28.0183L77.705 67.782C77.4427 65.5511 75.5411 63.9763 73.3772 64.1075Z" fill="#0078D4"/>
<path fill-rule="evenodd" clip-rule="evenodd" d="M43.5241 51.9115C43.5508 54.4779 44.6768 56.8163 46.6602 58.4209C47.7912 59.3098 48.4991 60.631 48.6247 62.069L48.9046 65.2719C48.9903 66.2524 49.8428 66.9681 50.8284 66.9476C51.164 67.7745 52.0818 68.4845 53.1271 68.3929C54.1724 68.3013 54.9531 67.4426 55.1402 66.5699C56.1144 66.4187 56.8298 65.5657 56.7441 64.5852L56.4642 61.3823C56.3386 59.9443 56.8066 58.5202 57.7662 57.4481C59.4469 55.5884 60.2098 53.0187 59.7257 50.4924C59.0563 46.5991 55.5157 43.7477 51.5674 43.7642C51.1754 43.7986 50.7834 43.8329 50.3915 43.8672C46.5003 44.5374 43.508 47.961 43.5241 51.9115ZM55.5707 63.9635L49.8871 64.4613L49.8414 63.9384L55.525 63.4406L55.5707 63.9635ZM53.0414 67.4124C52.5841 67.4525 52.2289 67.1543 51.939 66.8503L53.9642 66.6729C53.7968 67.0169 53.4334 67.3781 53.0414 67.4124ZM54.8585 65.6066L50.8734 65.9557C50.5468 65.9843 50.203 65.8168 50.0438 65.5014L55.5968 65.015C55.4947 65.3533 55.2505 65.5723 54.8585 65.6066ZM55.4393 62.4601L49.7557 62.9579L49.71 62.435L55.3936 61.9372L55.4393 62.4601ZM50.274 53.8232L49.6207 53.8804C49.2288 53.9147 48.9389 53.6108 48.9103 53.284C48.8761 52.8918 49.1798 52.6017 49.5065 52.5731C49.8985 52.5387 50.1883 52.8427 50.2169 53.1695L50.274 53.8232ZM51.3454 54.7832L52.4559 54.6859L53.0214 61.157L51.9108 61.2543L51.3454 54.7832ZM50.5482 44.9073C50.8748 44.8787 51.2015 44.8501 51.5281 44.8215C55.0134 44.7797 58.0625 47.2789 58.6861 50.6493C59.0763 52.8545 58.4809 55.0802 56.979 56.7267C55.9598 57.8698 55.3669 59.3708 55.3676 60.8856L54.061 61.0001L53.4955 54.5289L54.1488 54.4717C55.0634 54.3916 55.7788 53.5386 55.6988 52.6235C55.6189 51.7084 54.7664 50.9926 53.8518 51.0728C52.9372 51.1529 52.2218 52.0059 52.3017 52.921L52.3588 53.5747L51.2483 53.672L51.1911 53.0183C51.1112 52.1032 50.2587 51.3875 49.3441 51.4676C48.4295 51.5477 47.7141 52.4008 47.794 53.3159C47.874 54.231 48.7265 54.9467 49.6411 54.8666L50.2944 54.8093L50.8598 61.2805L49.5533 61.3949C49.2912 59.903 48.447 58.5279 47.245 57.5793C45.4804 56.219 44.5079 54.1306 44.5097 51.8911C44.5393 48.4635 47.1086 45.4721 50.5482 44.9073ZM53.4098 53.5485L53.3527 52.8948C53.3184 52.5026 53.6222 52.2126 53.9489 52.184C54.3409 52.1496 54.6307 52.4536 54.6593 52.7804C54.6936 53.1726 54.3898 53.4626 54.0631 53.4913L53.4098 53.5485Z" fill="white"/>
<path fill-rule="evenodd" clip-rule="evenodd" d="M49.9991 38.6318L50.2047 40.985C50.2333 41.3118 50.5117 41.485 50.7731 41.4621C51.0997 41.4335 51.2729 41.1549 51.25 40.8934L51.0444 38.5403C51.0158 38.2134 50.7374 38.0402 50.476 38.0631C50.1494 38.0917 49.9705 38.305 49.9991 38.6318Z" fill="white"/>
<path fill-rule="evenodd" clip-rule="evenodd" d="M58.9412 40.0225C58.6628 39.8493 58.3418 39.9433 58.234 40.2162L57.0278 42.2319C56.8547 42.5105 56.9485 42.8316 57.2213 42.9395C57.4997 43.1127 57.8206 43.0187 57.9285 42.7458L59.1347 40.73C59.2482 40.5225 59.1543 40.2014 58.9412 40.0225Z" fill="white"/>
<path fill-rule="evenodd" clip-rule="evenodd" d="M62.1663 48.3029L64.3246 47.3894C64.5802 47.3012 64.7476 46.9572 64.5941 46.7072C64.5059 46.4515 64.1622 46.284 63.9123 46.4376L61.7483 47.2858C61.4927 47.374 61.3253 47.718 61.4788 47.968C61.5727 48.2891 61.8454 48.3969 62.1663 48.3029Z" fill="white"/>
<path fill-rule="evenodd" clip-rule="evenodd" d="M62.3745 55.2009L64.6584 55.7253C64.9255 55.7678 65.2407 55.6085 65.2832 55.3413C65.3256 55.0741 65.1664 54.7588 64.8994 54.7163L62.6155 54.1919C62.3485 54.1494 62.0333 54.3087 61.9908 54.5759C61.883 54.8488 62.1075 55.1584 62.3745 55.2009Z" fill="white"/>
<path fill-rule="evenodd" clip-rule="evenodd" d="M59.2587 60.2162C59.0399 59.9719 58.7132 60.0006 58.5287 60.1484C58.2845 60.3674 58.313 60.6943 58.4608 60.8789L59.9984 62.6543C60.2172 62.8986 60.5439 62.87 60.7284 62.7221C60.9726 62.5031 60.944 62.1763 60.7962 61.9916L59.2587 60.2162Z" fill="white"/>
<path fill-rule="evenodd" clip-rule="evenodd" d="M44.2609 64.0979C44.5394 64.2711 44.8603 64.1771 44.9681 63.9042L46.1744 61.8885C46.3475 61.6098 46.2536 61.2887 45.9809 61.1809C45.7024 61.0077 45.3815 61.1017 45.2737 61.3746L44.1328 63.3846C43.9596 63.6632 44.0535 63.9843 44.2609 64.0979Z" fill="white"/>
<path fill-rule="evenodd" clip-rule="evenodd" d="M39.3011 57.8137L41.4593 56.9002C41.7149 56.8119 41.8824 56.4679 41.7289 56.2179C41.6407 55.9622 41.2969 55.7947 41.047 55.9484L38.8888 56.8619C38.6332 56.9501 38.4658 57.2941 38.6193 57.5441C38.7074 57.7998 39.0455 57.9019 39.3011 57.8137Z" fill="white"/>
<path fill-rule="evenodd" clip-rule="evenodd" d="M38.3084 49.4695L40.5923 49.9939C40.8593 50.0364 41.1745 49.877 41.217 49.6099C41.2595 49.3427 41.1003 49.0273 40.8332 48.9849L38.5493 48.4604C38.2823 48.418 37.9671 48.5773 37.9246 48.8445C37.8168 49.1173 38.0414 49.427 38.3084 49.4695Z" fill="white"/>
<path fill-rule="evenodd" clip-rule="evenodd" d="M43.2038 41.4662C42.9849 41.2219 42.6583 41.2506 42.4737 41.3985C42.2296 41.6174 42.2581 41.9443 42.4059 42.1289L43.9434 43.9043C44.1623 44.1486 44.4889 44.12 44.6735 43.9721C44.9177 43.7531 44.8891 43.4263 44.7413 43.2416L43.2038 41.4662Z" fill="white"/>
<path fill-rule="evenodd" clip-rule="evenodd" d="M51.2304 46.6916C52.2103 46.6058 53.1477 46.7871 53.9773 47.2414C54.0483 47.301 54.179 47.2896 54.2443 47.2838C54.4403 47.2667 54.5652 47.1899 54.6787 46.9823C54.7865 46.7094 54.6984 46.4537 54.4852 46.2748C53.454 45.7724 52.3149 45.5429 51.2043 45.6401C50.943 45.663 50.6988 45.882 50.7274 46.2088C50.6906 46.5413 50.9037 46.7202 51.2304 46.6916Z" fill="white"/>
<path fill-rule="evenodd" clip-rule="evenodd" d="M56.1426 49.423C56.225 49.6134 56.4325 49.7269 56.6284 49.7098C56.6938 49.704 56.7591 49.6983 56.8187 49.6272C57.0686 49.4736 57.1764 49.2007 57.0229 48.9507C56.7869 48.5103 56.4856 48.0757 56.119 47.6467C55.9059 47.4678 55.6389 47.4253 55.3947 47.6443C55.2158 47.8576 55.1734 48.1247 55.3922 48.369C55.6821 48.673 55.9123 49.048 56.1426 49.423Z" fill="white"/>
<path fill-rule="evenodd" clip-rule="evenodd" d="M31.8033 41.4041L39.0164 42.3227C39.0164 42.5195 38.8852 43.0445 38.7541 43.1757L35.3442 47.6376C35.1475 47.8345 34.8852 47.9001 34.6885 47.9001C34.4262 47.9001 34.2295 47.7033 34.0983 47.5064L31.8688 42.3227C31.7377 42.1258 31.8033 41.5353 31.8033 41.4041Z" fill="#E1E4E1"/>
<path fill-rule="evenodd" clip-rule="evenodd" d="M35.4098 41.8633L39.0163 42.3226C39.0163 42.5195 38.8852 43.0444 38.754 43.1756L35.3442 47.6376C35.1475 47.8344 34.8852 47.9 34.6885 47.9L35.4098 41.8633Z" fill="#C5CCCD"/>
<path fill-rule="evenodd" clip-rule="evenodd" d="M40.4591 24.0812C40.9181 24.1468 41.246 24.5405 41.1804 24.9999L40.9181 27.034C40.8526 27.4933 40.4591 27.8214 40.0001 27.7558L34.3608 27.034C33.9018 26.9684 33.5739 26.5747 33.6395 26.1153L33.9018 24.0812C33.9673 23.6219 34.3608 23.2938 34.8198 23.3594L40.4591 24.0812Z" fill="#FF9149"/>
<path fill-rule="evenodd" clip-rule="evenodd" d="M36.918 41.9945L35.3442 42.6507L33.9016 41.6664L35.8032 26.3777L38.7541 26.7714L36.918 41.9945Z" fill="#EFB252"/>
<path fill-rule="evenodd" clip-rule="evenodd" d="M39.0163 42.257L37.7048 42.9132L36.5901 41.9945L38.4917 26.7058L40.918 27.0339L39.0163 42.257Z" fill="#CC9547"/>
<path fill-rule="evenodd" clip-rule="evenodd" d="M34.2295 41.6664L32.918 42.3226L31.8032 41.4039L33.6393 26.1152L36.0655 26.4433L34.2295 41.6664Z" fill="#F7CB64"/>
<path fill-rule="evenodd" clip-rule="evenodd" d="M33.5083 46.0627L36.2624 46.3908L35.3444 47.5719C35.1476 47.7688 34.8854 47.8344 34.6886 47.8344C34.4263 47.8344 34.2296 47.6376 34.0985 47.4407L33.5083 46.0627Z" fill="#30404D"/>
<path fill-rule="evenodd" clip-rule="evenodd" d="M34.8852 46.2598L36.2622 46.4566L35.3442 47.6377C35.1475 47.8346 34.8852 47.9002 34.6885 47.9002L34.8852 46.2598Z" fill="#182A37"/>
<path fill-rule="evenodd" clip-rule="evenodd" d="M40.8524 27.4276L33.6393 26.509C33.4426 26.509 33.2459 26.2465 33.3114 26.0497C33.377 25.8528 33.5082 25.656 33.7705 25.7216L40.9836 26.6402C41.1803 26.6402 41.377 26.9027 41.3114 27.0996C41.2459 27.2964 41.0492 27.4276 40.8524 27.4276Z" fill="#ADBDC4"/>
<path fill-rule="evenodd" clip-rule="evenodd" d="M40.9836 26.5746C41.1803 26.5746 41.377 26.837 41.3114 27.0339C41.3114 27.2307 41.1147 27.4276 40.8524 27.362L37.2458 26.9026L37.377 26.1152L40.9836 26.5746Z" fill="#8BA6B1"/>
<path fill-rule="evenodd" clip-rule="evenodd" d="M36 27.2965V26.8372L38.4262 27.0996L38.3607 27.5589L36 27.2965Z" fill="#CC9547"/>
<path fill-rule="evenodd" clip-rule="evenodd" d="M33.5737 26.9683L33.6393 26.509L36 26.8371V27.2964L33.5737 26.9683Z" fill="#EFB252"/>
<path fill-rule="evenodd" clip-rule="evenodd" d="M28.9181 66.076C29.5738 65.7479 29.8361 65.0261 29.5738 64.37C29.246 63.7138 28.5246 63.4513 27.8689 63.7138C27.2132 64.0419 26.9509 64.7637 27.2132 65.4198C27.541 66.1416 28.2623 66.4041 28.9181 66.076ZM21.5738 41.076C22.0328 40.8792 22.4919 41.076 22.6886 41.4697L33.5738 64.8293C33.7705 65.2886 33.5738 65.7479 33.1804 65.9448L26.164 69.2256C25.705 69.4225 25.246 69.2256 25.0492 68.8319L14.0984 45.4723C13.9017 45.013 14.0984 44.5537 14.4919 44.3568L21.5738 41.076Z" fill="#D8E8F0"/>
<path fill-rule="evenodd" clip-rule="evenodd" d="M23.2131 42.6509L23.6065 43.4383L20.8524 44.685C20.6557 44.8162 20.3934 44.685 20.2623 44.4882C20.1311 44.2913 20.2623 44.0288 20.459 43.8976L23.2131 42.6509Z" fill="#617C93"/>
<path fill-rule="evenodd" clip-rule="evenodd" d="M25.4426 47.3096L25.836 48.097L23.0819 49.3437C22.8852 49.4749 22.6229 49.3437 22.4918 49.1468C22.3606 48.95 22.4918 48.6875 22.6885 48.5563L25.4426 47.3096Z" fill="#617C93"/>
<path fill-rule="evenodd" clip-rule="evenodd" d="M24.328 45.0129L24.7214 45.8003L20.4591 47.7688C20.2624 47.9001 20.0001 47.7688 19.869 47.572C19.7378 47.3751 19.869 47.1127 20.0657 46.9814L24.328 45.0129Z" fill="#617C93"/>
<path fill-rule="evenodd" clip-rule="evenodd" d="M26.4918 49.6719L26.8852 50.4593L22.6229 52.4278C22.4262 52.559 22.1639 52.4278 22.0328 52.2309C21.9016 52.0341 22.0328 51.7716 22.2295 51.6404L26.4918 49.6719Z" fill="#617C93"/>
<path fill-rule="evenodd" clip-rule="evenodd" d="M27.6066 52.0339L28.0001 52.8213L25.246 54.0681C25.0493 54.1993 24.787 54.0681 24.6558 53.8712C24.5247 53.6744 24.6558 53.4119 24.8525 53.2807L27.6066 52.0339Z" fill="#617C93"/>
<path fill-rule="evenodd" clip-rule="evenodd" d="M28.6559 54.3306L29.0493 55.118L24.787 57.0865C24.5903 57.2177 24.328 57.0865 24.1968 56.8896C24.0657 56.6928 24.1968 56.4303 24.3936 56.2991L28.6559 54.3306Z" fill="#617C93"/>
<path fill-rule="evenodd" clip-rule="evenodd" d="M29.7705 56.6926L30.1639 57.48L27.4098 58.7267C27.2131 58.858 26.9508 58.7267 26.8196 58.5299C26.6885 58.333 26.8196 58.0706 27.0164 57.9393L29.7705 56.6926Z" fill="#617C93"/>
<path fill-rule="evenodd" clip-rule="evenodd" d="M30.8853 59.0549L31.2788 59.8423L27.0165 61.8108C26.8198 61.9421 26.5575 61.8108 26.4263 61.614C26.2952 61.4171 26.4263 61.1547 26.623 61.0234L30.8853 59.0549Z" fill="#617C93"/>
</g>
<defs>
<linearGradient id="paint0_linear" x1="50.0002" y1="97.9811" x2="50.0002" y2="2.08485" gradientUnits="userSpaceOnUse">
<stop stop-color="#125A9A"/>
<stop offset="0.9899" stop-color="#243A5E"/>
<stop offset="1" stop-color="#CF8B17"/>
</linearGradient>
<clipPath id="clip0">
<rect width="100" height="100" fill="white"/>
</clipPath>
</defs>
</svg>

<svg width="100" height="100" fill="none" xmlns="http://www.w3.org/2000/svg"><g clip-path="url(#a)"><path d="M50 97.98c26.464 0 47.917-21.466 47.917-47.947S76.464 2.085 50 2.085c-26.463 0-47.916 21.467-47.916 47.948C2.084 76.513 23.537 97.98 50 97.98Z" fill="url(#b)"/><path d="M50 4.17c25.278 0 45.833 20.568 45.833 45.863 0 25.294-20.555 45.863-45.833 45.863S4.167 75.327 4.167 50.033C4.167 24.738 24.722 4.169 50 4.169ZM50 0C22.361 0 0 22.376 0 50.033s22.361 50.033 50 50.033 50-22.376 50-50.033S77.639 0 50 0Z" fill="#0078D4"/><path fill-rule="evenodd" clip-rule="evenodd" d="m73.18 62.533-2.623-30.184-45.245 3.937c-.853.066-1.509.853-1.443 1.706l3.213 36.548c.066.853.853 1.51 1.705 1.444l45.246-3.937a3.982 3.982 0 0 0 3.606-4.33l-.459-5.578-4 .394Z" fill="#28A7E9"/><path fill-rule="evenodd" clip-rule="evenodd" d="m73.377 64.108-.787.065c-.852.066-1.64-.59-1.705-1.444l-3.213-36.548c-.065-.853.59-1.64 1.443-1.706l.787-.066c2.164-.197 4.13 1.444 4.328 3.61l3.475 39.763c-.262-2.23-2.164-3.806-4.328-3.674Z" fill="#0078D4"/><path fill-rule="evenodd" clip-rule="evenodd" d="M43.524 51.911c.027 2.567 1.153 4.905 3.136 6.51a5.21 5.21 0 0 1 1.965 3.648l.28 3.203c.085.98.938 1.696 1.923 1.676.336.827 1.254 1.537 2.3 1.445 1.044-.092 1.825-.95 2.012-1.823.974-.151 1.69-1.004 1.604-1.985l-.28-3.203a5.213 5.213 0 0 1 1.302-3.934 8.112 8.112 0 0 0 1.96-6.956c-.67-3.893-4.21-6.744-8.159-6.728l-1.175.103c-3.892.67-6.884 4.094-6.868 8.044Zm12.047 12.053-5.684.497-.046-.523 5.684-.497.046.523Zm-2.53 3.448c-.457.04-.812-.258-1.102-.562l2.025-.177c-.167.344-.53.705-.923.74Zm1.818-1.805-3.986.349a.852.852 0 0 1-.83-.455l5.554-.486c-.102.338-.346.557-.739.592Zm.58-3.147-5.683.498-.046-.523 5.684-.498.045.523Zm-5.165-8.637-.653.057a.657.657 0 0 1-.71-.596.658.658 0 0 1 .596-.71.657.657 0 0 1 .71.596l.057.653Zm1.071.96 1.11-.097.566 6.471-1.11.097-.566-6.47Zm-.797-9.876.98-.085c3.485-.042 6.535 2.457 7.158 5.827.39 2.206-.205 4.431-1.707 6.078-1.02 1.143-1.612 2.644-1.611 4.159L54.06 61l-.566-6.471.654-.057c.914-.08 1.63-.933 1.55-1.849-.08-.915-.933-1.63-1.847-1.55-.915.08-1.63.933-1.55 1.848l.057.654-1.11.097-.058-.654c-.08-.915-.932-1.63-1.847-1.55-.915.08-1.63.933-1.55 1.848.08.915.933 1.63 1.847 1.55l.653-.057.566 6.472-1.307.114c-.262-1.492-1.106-2.867-2.308-3.816-1.765-1.36-2.737-3.448-2.735-5.688.03-3.427 2.599-6.419 6.038-6.984Zm2.862 8.642-.057-.654a.657.657 0 0 1 .596-.711.657.657 0 0 1 .71.596.658.658 0 0 1-.596.711l-.653.057ZM50 38.632l.205 2.353c.028.327.307.5.568.477a.517.517 0 0 0 .477-.569l-.206-2.353a.517.517 0 0 0-.568-.477c-.327.029-.505.242-.477.569Zm8.941 1.391c-.278-.174-.6-.08-.707.193l-1.206 2.016c-.173.279-.08.6.193.708.279.173.6.079.708-.194l1.206-2.016c.113-.207.02-.529-.194-.707Zm3.225 8.28 2.159-.914c.255-.088.423-.432.27-.682-.09-.255-.433-.423-.683-.27l-2.164.849c-.255.088-.423.432-.27.682.095.321.367.429.688.335Zm.208 6.897 2.284.525c.267.043.583-.117.625-.384.043-.267-.117-.582-.384-.625l-2.284-.524c-.267-.043-.582.117-.624.384-.108.273.117.582.383.625Zm-3.115 5.016a.534.534 0 0 0-.73-.068.534.534 0 0 0-.068.73l1.537 1.776a.533.533 0 0 0 .73.068.534.534 0 0 0 .068-.73l-1.537-1.776ZM44.26 64.098c.28.173.6.08.708-.194l1.206-2.016c.173-.278.08-.6-.193-.707-.279-.173-.6-.08-.707.194l-1.141 2.01c-.173.278-.08.6.128.713Zm-4.959-6.284 2.158-.914c.256-.088.423-.432.27-.682-.088-.256-.432-.423-.682-.27l-2.158.914c-.256.088-.423.432-.27.682.088.256.426.358.682.27Zm-.993-8.344 2.284.524c.267.042.583-.117.625-.384.043-.267-.117-.583-.384-.625l-2.284-.525c-.267-.042-.582.117-.624.384-.108.273.116.583.383.625Zm4.896-8.004a.534.534 0 0 0-.73-.068.534.534 0 0 0-.068.73l1.537 1.776a.534.534 0 0 0 .73.068.534.534 0 0 0 .068-.73l-1.537-1.776Z" fill="#fff"/><path fill-rule="evenodd" clip-rule="evenodd" d="M51.23 46.692c.98-.086 1.918.095 2.747.55.071.059.202.048.267.042.196-.017.321-.094.435-.302.107-.273.02-.528-.194-.707-1.031-.503-2.17-.732-3.28-.635a.517.517 0 0 0-.478.569c-.036.332.177.511.503.483Zm4.913 2.731c.082.19.29.304.485.287.066-.006.131-.012.19-.083.25-.153.358-.426.205-.676a7.386 7.386 0 0 0-.904-1.304c-.213-.18-.48-.222-.724-.003-.18.214-.222.48-.003.725.29.304.52.679.75 1.054Z" fill="#fff"/><path fill-rule="evenodd" clip-rule="evenodd" d="m31.803 41.404 7.213.919c0 .197-.13.721-.262.853l-3.41 4.462a.939.939 0 0 1-.656.262c-.262 0-.459-.197-.59-.394l-2.23-5.183c-.13-.197-.065-.788-.065-.919Z" fill="#E1E4E1"/><path fill-rule="evenodd" clip-rule="evenodd" d="m35.41 41.863 3.606.46c0 .197-.13.721-.262.853l-3.41 4.462a.94.94 0 0 1-.656.262l.722-6.037Z" fill="#C5CCCD"/><path fill-rule="evenodd" clip-rule="evenodd" d="M40.46 24.081c.458.066.786.46.72.919l-.262 2.034c-.065.46-.459.787-.918.722l-5.64-.722c-.458-.066-.786-.46-.72-.919l.262-2.034c.065-.46.459-.787.918-.722l5.64.722Z" fill="#FF9149"/><path fill-rule="evenodd" clip-rule="evenodd" d="m36.918 41.995-1.574.656-1.442-.985 1.901-15.288 2.951.393-1.836 15.224Z" fill="#EFB252"/><path fill-rule="evenodd" clip-rule="evenodd" d="m39.016 42.257-1.311.656-1.115-.918 1.902-15.29 2.426.329-1.902 15.223Z" fill="#CC9547"/><path fill-rule="evenodd" clip-rule="evenodd" d="m34.23 41.666-1.312.657-1.115-.92 1.836-15.288 2.426.328-1.835 15.223Z" fill="#F7CB64"/><path fill-rule="evenodd" clip-rule="evenodd" d="m33.508 46.063 2.754.328-.918 1.18a.94.94 0 0 1-.655.263c-.263 0-.46-.196-.59-.393l-.59-1.378Z" fill="#30404D"/><path fill-rule="evenodd" clip-rule="evenodd" d="m34.885 46.26 1.377.197-.918 1.18a.939.939 0 0 1-.656.263l.197-1.64Z" fill="#182A37"/><path fill-rule="evenodd" clip-rule="evenodd" d="m40.852 27.428-7.213-.919c-.196 0-.393-.262-.328-.46.066-.196.197-.393.46-.327l7.213.918c.196 0 .393.263.327.46a.493.493 0 0 1-.459.328Z" fill="#ADBDC4"/><path fill-rule="evenodd" clip-rule="evenodd" d="M40.984 26.575c.196 0 .393.262.327.459a.357.357 0 0 1-.459.328l-3.606-.46.131-.787 3.607.46Z" fill="#8BA6B1"/><path fill-rule="evenodd" clip-rule="evenodd" d="M36 27.297v-.46l2.426.263-.065.459L36 27.297Z" fill="#CC9547"/><path fill-rule="evenodd" clip-rule="evenodd" d="m33.574 26.968.065-.459 2.361.328v.46l-2.426-.329Z" fill="#EFB252"/><path fill-rule="evenodd" clip-rule="evenodd" d="M28.918 66.076c.656-.328.918-1.05.656-1.706-.328-.656-1.05-.919-1.705-.656a1.325 1.325 0 0 0-.656 1.706c.328.722 1.05.984 1.705.656Zm-7.344-25a.844.844 0 0 1 1.115.394l10.885 23.36a.844.844 0 0 1-.394 1.115l-7.016 3.28a.844.844 0 0 1-1.115-.393L14.1 45.472a.845.845 0 0 1 .393-1.115l7.082-3.281Z" fill="#D8E8F0"/><path fill-rule="evenodd" clip-rule="evenodd" d="m23.213 42.65.393.788-2.754 1.247c-.196.131-.459 0-.59-.197-.13-.197 0-.46.197-.59l2.754-1.247Zm2.23 4.66.393.787-2.754 1.247c-.197.13-.46 0-.59-.197-.131-.197 0-.46.197-.59l2.754-1.247Zm-1.115-2.297.393.787-4.262 1.969c-.197.131-.459 0-.59-.197-.131-.197 0-.46.197-.59l4.262-1.97Zm2.164 4.659.393.787-4.262 1.969c-.197.131-.46 0-.59-.197-.131-.197 0-.46.197-.59l4.262-1.97Zm1.115 2.362.393.787-2.754 1.247c-.197.131-.459 0-.59-.197-.131-.197 0-.46.197-.59l2.754-1.247Zm1.049 2.296.393.788-4.262 1.968c-.197.132-.459 0-.59-.196-.131-.197 0-.46.197-.59l4.262-1.97Zm1.114 2.363.394.787-2.754 1.247c-.197.131-.46 0-.59-.197-.131-.197 0-.46.196-.59l2.755-1.247Zm1.115 2.362.394.787-4.262 1.969c-.197.131-.46 0-.59-.197-.132-.197 0-.46.196-.59l4.262-1.97Z" fill="#617C93"/></g><defs><linearGradient id="b" x1="50" y1="97.981" x2="50" y2="2.085" gradientUnits="userSpaceOnUse"><stop stop-color="#125A9A"/><stop offset=".99" stop-color="#243A5E"/><stop offset="1" stop-color="#CF8B17"/></linearGradient><clipPath id="a"><path fill="#fff" d="M0 0h100v100H0z"/></clipPath></defs></svg>
